packages/elvis-assets-icons/icons/svg/src/map_pin-color.svg

<svg width="24" height="24" viewBox="0 0 24 24" fill="none" xmlns="http://www.w3.org/2000/svg">
<g clip-path="url(#clip0)">
<path d="M22.5701 2.56462L16.5701 0.164619C16.0351 -0.0548731 15.4352 -0.0548731 14.9001 0.164619L8.24012 2.8C8.51013 2.72462 8.15069 2.81422 8.24012 2.8C8.24012 2.8 8.32956 2.80969 8.24012 2.79547L2.05013 0.35462C1.82241 0.262239 1.57538 0.227616 1.33103 0.253834C1.08669 0.280051 0.852632 0.366297 0.649697 0.504886C0.446763 0.643476 0.281256 0.830107 0.167922 1.04815C0.0545875 1.2662 -0.00305657 1.5089 0.000124896 1.75462V16.1246C-0.000410414 16.574 0.133604 17.0132 0.384904 17.3857C0.636204 17.7582 0.993276 18.0469 1.41012 18.2146L7.41012 20.6146C7.94637 20.8278 8.54387 20.8278 9.08012 20.6146L11.9501 19.4446C12.042 19.4079 12.1258 19.3533 12.1967 19.2842C12.2675 19.215 12.3241 19.1326 12.3631 19.0416C12.4021 18.9506 12.4228 18.8528 12.424 18.7538C12.4252 18.6548 12.4069 18.5565 12.3701 18.4646C12.3334 18.3727 12.2788 18.2889 12.2097 18.2181C12.1405 18.1472 12.0581 18.0907 11.9671 18.0517C11.8761 18.0127 11.7783 17.992 11.6793 17.9908C11.5803 17.9895 11.4821 18.0078 11.3901 18.0446L8.99012 19.0446V4.1687L9.07012 4.13462L14.9901 1.74462V8.25462C14.9901 8.45353 15.0691 8.6443 15.2098 8.78495C15.3504 8.9256 15.5412 9.00462 15.7401 9.00462C15.939 9.00462 16.1298 8.9256 16.2705 8.78495C16.4111 8.6443 16.4901 8.45353 16.4901 8.25462V1.74462L22.0101 3.95462C22.1507 4.01032 22.2714 4.10668 22.3569 4.23137C22.4424 4.35607 22.4888 4.50343 22.4901 4.65462V9.00462C22.4901 9.20353 22.5691 9.3943 22.7098 9.53495C22.8504 9.6756 23.0412 9.75462 23.2401 9.75462C23.439 9.75462 23.6298 9.6756 23.7705 9.53495C23.9111 9.3943 23.9901 9.20353 23.9901 9.00462V4.65462C23.9912 4.20382 23.8563 3.76317 23.6029 3.39029C23.3496 3.01741 22.9896 2.72965 22.5701 2.56462ZM1.96013 16.8246C1.82065 16.7685 1.70126 16.6717 1.61745 16.5469C1.53364 16.4221 1.48928 16.275 1.49012 16.1246V1.74462L7.49012 4.13462V19.0146L1.96013 16.8246Z" fill="black"/>
<path d="M18.76 24C18.5321 24.0032 18.3065 23.9544 18.1003 23.8573C17.8942 23.7603 17.7128 23.6176 17.57 23.44C15.72 21.07 13.51 17.83 13.51 15.84C13.51 15.1505 13.6458 14.4678 13.9096 13.8309C14.1735 13.1939 14.5602 12.6152 15.0477 12.1277C15.5352 11.6401 16.1139 11.2534 16.7509 10.9896C17.3879 10.7258 18.0706 10.59 18.76 10.59C19.4494 10.59 20.1321 10.7258 20.7691 10.9896C21.406 11.2534 21.9848 11.6401 22.4723 12.1277C22.9598 12.6152 23.3465 13.1939 23.6104 13.8309C23.8742 14.4678 24.01 15.1505 24.01 15.84C24.01 17.84 21.79 21.07 19.94 23.44C19.7988 23.6168 19.6191 23.7591 19.4146 23.8562C19.2102 23.9532 18.9863 24.0024 18.76 24ZM18.76 12.07C17.7662 12.0726 16.8139 12.4685 16.1113 13.1712C15.4086 13.8739 15.0126 14.8262 15.01 15.82C15.01 16.98 16.44 19.54 18.76 22.5C21.07 19.5 22.51 16.98 22.51 15.82C22.5074 14.8262 22.1114 13.8739 21.4087 13.1712C20.706 12.4685 19.7537 12.0726 18.76 12.07Z" fill="black"/>
<path fill-rule="evenodd" clip-rule="evenodd" d="M18.8 13.3C17.585 13.3 16.6 14.285 16.6 15.5C16.6 16.7151 17.585 17.7 18.8 17.7C20.015 17.7 21 16.7151 21 15.5C21 14.285 20.015 13.3 18.8 13.3ZM17.8571 15.5C17.8571 14.9793 18.2793 14.5572 18.8 14.5572C19.3207 14.5572 19.7429 14.9793 19.7429 15.5C19.7429 16.0208 19.3207 16.4429 18.8 16.4429C18.2793 16.4429 17.8571 16.0208 17.8571 15.5Z" fill="#29D305"/>
</g>
<defs>
<clipPath id="clip0">
<rect width="24" height="24" fill="white"/>
</clipPath>
</defs>
</svg>

<svg width="24" height="24" fill="none" xmlns="http://www.w3.org/2000/svg"><g clip-path="url(#clip0)"><path d="M22.57 2.565l-6-2.4a2.2 2.2 0 00-1.67 0L8.24 2.8c.27-.075-.09.014 0 0 0 0 .09.01 0-.005L2.05.355A1.49 1.49 0 000 1.755v14.37a2.25 2.25 0 001.41 2.09l6 2.4a2.26 2.26 0 001.67 0l2.87-1.17a.754.754 0 10-.56-1.4l-2.4 1V4.169l.08-.034 5.92-2.39v6.51a.75.75 0 101.5 0v-6.51l5.52 2.21a.76.76 0 01.48.7v4.35a.75.75 0 101.5 0v-4.35a2.24 2.24 0 00-1.42-2.09zM1.96 16.825a.75.75 0 01-.47-.7V1.745l6 2.39v14.88l-5.53-2.19z" fill="#000"/><path d="M18.76 24a1.499 1.499 0 01-1.19-.56c-1.85-2.37-4.06-5.61-4.06-7.6a5.25 5.25 0 1110.5 0c0 2-2.22 5.23-4.07 7.6a1.49 1.49 0 01-1.18.56zm0-11.93a3.76 3.76 0 00-3.75 3.75c0 1.16 1.43 3.72 3.75 6.68 2.31-3 3.75-5.52 3.75-6.68a3.76 3.76 0 00-3.75-3.75z" fill="#000"/><path fill-rule="evenodd" clip-rule="evenodd" d="M18.8 13.3a2.2 2.2 0 100 4.4 2.2 2.2 0 000-4.4zm-.943 2.2a.943.943 0 111.886 0 .943.943 0 01-1.886 0z" fill="#29D305"/></g><defs><clipPath id="clip0"><path fill="#fff" d="M0 0h24v24H0z"/></clipPath></defs></svg>
